common/src/assets/icons/save.svg

<?xml version="1.0" encoding="UTF-8"?>
<svg width="18px" height="19px" viewBox="0 0 18 19" version="1.1" xmlns="http://www.w3.org/2000/svg" xmlns:xlink="http://www.w3.org/1999/xlink">
    <!-- Generator: Sketch 63.1 (92452) - https://sketch.com -->
    <title>Shape@1x</title>
    <desc>Created with Sketch.</desc>
    <g id="Maquette" stroke="none" stroke-width="1" fill="none" fill-rule="evenodd">
        <g id="Etape-1---mon-projet-connu-wdg" transform="translate(-385.000000, -945.000000)" fill="#333333" fill-rule="nonzero">
            <g id="Save-for-later" transform="translate(385.000000, 945.000000)">
                <g id="save">
                    <path d="M4.5000053,16.9999735 L4.5000053,12.4999735 L13.5000159,12.4999735 L13.5000159,16.9999735 L4.5000053,16.9999735 Z M15.0000179,16.9999788 L15.0000179,12.124973 C15.0000179,11.5038784 14.496111,10.9999715 13.8750164,10.9999715 L4.1250048,10.9999715 C3.5039102,10.9999715 3.000002,11.5038784 3.000002,12.124973 L3.000002,16.9999788 L1.500002,16.9999788 L1.500002,1.9999609 L3.000002,1.9999609 L3.000002,6.8749667 C3.000002,7.4960613 3.5039102,7.9999609 4.1250048,7.9999609 L10.8750131,7.9999609 C11.4961077,7.9999609 12.0000146,7.4960613 12.0000146,6.8749667 L12.0000146,1.9999609 C12.2343893,1.9999609 12.6914214,2.1874608 12.8554839,2.3515233 L16.1484568,5.6444962 C16.3008006,5.79684 16.5000199,6.2773095 16.5000199,6.4999609 L16.5000199,16.9999788 L15.0000179,16.9999788 Z M10.5000086,6.1249657 C10.5000086,6.3241843 10.3242314,6.4999609 10.1250121,6.4999609 L7.8750091,6.4999609 C7.6757905,6.4999609 7.5000086,6.3241843 7.5000086,6.1249657 L7.5000086,2.3749614 C7.5000086,2.1757421 7.6757905,1.9999609 7.8750091,1.9999609 L10.1250121,1.9999609 C10.3242314,1.9999609 10.5000086,2.1757421 10.5000086,2.3749614 L10.5000086,6.1249657 Z M18.0000212,6.4999589 C18.0000212,5.8788716 17.6484588,5.0234016 17.2031454,4.5780889 L13.9218919,1.2968347 C13.4765785,0.851522 12.6211085,0.4999589 12.0000146,0.4999589 L1.1250015,0.4999589 C0.5039069,0.4999589 0,1.0038658 0,1.6249604 L0,17.3749793 C0,17.9960732 0.5039069,18.4999801 1.1250015,18.4999801 L16.8750204,18.4999801 C17.4961143,18.4999801 18.0000212,17.9960732 18.0000212,17.3749793 L18.0000212,6.4999589 Z" id="Shape"></path>
                </g>
            </g>
        </g>
    </g>
</svg>

<?xml version="1.0" encoding="utf-8"?>
<!-- Generator: Adobe Illustrator 24.0.1, SVG Export Plug-In . SVG Version: 6.00 Build 0)  -->
<svg version="1.1" id="Calque_1" xmlns="http://www.w3.org/2000/svg" xmlns:xlink="http://www.w3.org/1999/xlink" x="0px" y="0px"
	 viewBox="0 0 18 19" style="enable-background:new 0 0 18 19;" xml:space="preserve">
<style type="text/css">
	.st0{fill:#A3A3A3;}
</style>
<title>Shape@1x</title>
<desc>Created with Sketch.</desc>
<g id="Maquette">
	<g id="Etape-1---mon-projet-connu-wdg" transform="translate(-385.000000, -945.000000)">
		<g id="Save-for-later" transform="translate(385.000000, 945.000000)">
			<g id="save">
				<path id="Shape" class="st0" d="M4.5,17v-4.5h9V17H4.5z M15,17v-4.9c0-0.6-0.5-1.1-1.1-1.1H4.1C3.5,11,3,11.5,3,12.1V17H1.5V2H3
					v4.9C3,7.5,3.5,8,4.1,8h6.8C11.5,8,12,7.5,12,6.9V2c0.2,0,0.7,0.2,0.9,0.4l3.3,3.3c0.2,0.2,0.4,0.6,0.4,0.9V17H15z M10.5,6.1
					c0,0.2-0.2,0.4-0.4,0.4H7.9c-0.2,0-0.4-0.2-0.4-0.4V2.4C7.5,2.2,7.7,2,7.9,2h2.3c0.2,0,0.4,0.2,0.4,0.4V6.1z M18,6.5
					c0-0.6-0.4-1.5-0.8-1.9l-3.3-3.3c-0.4-0.4-1.3-0.8-1.9-0.8H1.1C0.5,0.5,0,1,0,1.6v15.8c0,0.6,0.5,1.1,1.1,1.1h15.8
					c0.6,0,1.1-0.5,1.1-1.1V6.5z"/>
			</g>
		</g>
	</g>
</g>
</svg>
